X:1
T:St. Anne CM
T:St. Anne CM
T:William Croft
T:Philip R. McDavid
T:Frame of Light Designs
T:Frame of Light Designs
C:William Croft
Z:Philip R. McDavid
Z:Frame of Light Designs
%%score 1 2 { ( 3 4 ) | ( 5 6 ) }
L:1/8
M:4/4
K:C
V:1 treble transpose=-2 nm="B♭ Clarinet" snm="B♭ Cl."
V:2 bass nm="Euphonium" snm="Euph."
V:3 treble nm="Organ" snm="Org."
V:4 treble 
V:5 bass 
V:6 bass 
V:1
[K:D]|: D2 | D2 DE D2 F2 | E2 E2 F2 F2 | F2 F2 F2 E2 | E6 E2 | F2 D2 G2 E2 | D2 FE C2 D2 | %7
 G2 F2 E2 E2 | F6 :| A,2 | D2 (DE) F2 F2 | E2 A2 F2 F2 | F3 F F2 E2 | E6 E2 | F2 G2 G2 E2 | %15
 A3 G F2 F2 | G2 A2 G2 E2 | D6 x2 |] %18
V:2
|: E,2 | G,2 A,B, C2 C2 | A,2 G,2 G,2 C2 | C2 B,2 C2 A,2 | B,6 G,2 | G,2 A,2 A,2 G,2 | %6
 G,2 A,2 ^G,2 =G,2 | F,2 G,2 A,2 G,2 | G,6 :| G,2 | C2 (CD) E2 E2 | D2 G2 E2 E2 | E3 E E2 D2 | %13
 D6 D2 | E2 F2 F2 D2 | G3 F E2 E2 | F2 G2 F2 D2 | C6 x2 |] %18
V:3
|: G2 | E2 A2 G2 c2 | c2 B2 c2 G2 | c2 G2 A2 ^F2 | G6 B2 | c2 A2 d2 B2 | c2 A2 B2 G2 | %7
w: 1.O|God, our help in|a- ges past, our|hope for years to|come, our|shel- ter from the|storm- y blast, and|
w: 2.Un-|der the sha- dow|of your throne your|saints have dwelt se-|cure; suf-|fi- cient is your|arm a- lone, and|
w: 3.Be-|fore the hills in|or- der stood or|earth re- ceived its|frame, from|ev- er last- ing|you are God, to|
w: 4.A|thou- sand a- ges|in your sight are|like an eve- ning|gone, short|as the watch that|ends the night be-|
 A2 c2 d2 B2 | c6 :| G2 | E2 A2 G2 c2 | c2 B2 c2 G2 | c2 G2 A2 ^F2 | G6 B2 | c2 A2 d2 B2 | %15
w: our e- ter- nal|home:|5.Our|God, our help in|a- ges past, Our|hope for years to|come, Be|Thou our guard while|
w: our de- fense is|sure.|||||||
w: end- less years the|same.|||||||
w: fore the ri- sing|sun.|||||||
 c2 A2 B2 G2 | A2 c2 d2 B2 | c6 x2 |] %18
w: life shall last, And|our e- ter- nal|home.|
w: |||
w: |||
w: |||
V:4
|: C2 | C2 CD C2 E2 | D2 D2 E2 E2 | E2 E2 E2 D2 | D6 D2 | E2 C2 F2 D2 | C2 ED B,2 C2 | %7
 F2 E2 D2 D2 | E6 :| C2 | C2 CD C2 E2 | D2 D2 E2 E2 | E2 E2 E2 D2 | D6 D2 | E2 C2 F2 D2 | %15
 C2 ED B,2 C2 | F2 E2 D2 D2 | E6 x2 |] %18
V:5
|: E,2 | G,2 A,B, C2 C2 | A,2 G,2 G,2 C2 | C2 B,2 C2 A,2 | B,6 G,2 | G,2 A,2 A,2 G,2 | %6
 G,2 A,2 ^G,2 =G,2 | F,2 G,2 A,2 G,2 | G,6 :| E,2 | G,2 A,B, C2 C2 | A,2 G,2 G,2 C2 | %12
 C2 B,2 C2 A,2 | B,6 G,2 | G,2 A,2 A,2 G,2 | G,2 A,2 ^G,2 =G,2 | F,2 G,2 A,2 G,2 | G,6 x2 |] %18
V:6
|: C,2 | C,2 F,2 E,2 A,2 | F,2 G,2 C,2 C,2 | A,,2 E,2 C,2 D,2 | G,,6 G,2 | C,2 F,2 D,2 G,2 | %6
 E,2 F,2 E,2 E,2 | D,2 C,2 F,2 G,2 | C,6 :| C,2 | C,2 F,2 E,2 A,2 | F,2 G,2 C,2 C,2 | %12
 A,,2 E,2 C,2 D,2 | G,,6 G,2 | C,2 F,2 D,2 G,2 | E,2 F,2 E,2 E,2 | D,2 C,2 F,2 G,2 | C,6 x2 |] %18

